X:1
T:Tell It Wherever You Go
T:Tell It Wherever You Go
T:Carl Harold Lowden
T:Carl Harold Lowden, 1915
T:Public Domain Courtesy of the Cyber Hymnal™
T:Public Domain Courtesy of the Cyber Hymnal™
C:Carl Harold Lowden
Z:Public Domain
Z:Courtesy of the Cyber Hymnal™
%%score ( 1 2 ) ( 3 4 )
L:1/8
Q:1/4=95
M:4/4
K:Ab
V:1 treble 
V:2 treble 
V:3 bass 
V:4 bass 
V:1
 [A,C][B,D] | [CE][Ec][Ec][Ec] [Ec][CE][CF][CE] | [B,=D][DB][DB][DB] [DB]4 | %3
w: 1.~If you’ve|heard the won- drous sto- ry Of the|Sav- ior and His love,|
w: 2.~Deep in|sin He may have found you, Touched and|changed you thro’ and thro’,|
w: 3.~’Tis a|won- der- ful sal- va- tion That will|save a soul from sin,|
w: 4.~Life at|best is ve- ry fleet- ing, Death and|judg- ment swift and sure,|
 [Dc] [DB]2 [DG] [DF] [DG]2 [DF] | E6 [A,C][B,D] | [CE][Ec][Ec][Ec] [Ec][CE][CF][CE] | %6
w: Tell it wher- ev- er you|go. If you’ve|felt the thrill of glo- ry When He|
w: Tell it wher- ev- er you|go. There are|thou- sands who will pro- fit By the|
w: Tell it wher- ev- er you|go. Just a|word, when right- ly spo- ken, Oft- en|
w: Tell it wher- ev- er you|go. E’en the|word that you’ve for- got- ten May a|
 [B,=D][DB][DB][DB] [DB]4 | [Ac] [Ac]2 [Ac] [A=d] [Ad]2 [AB] | (e4 d4) || %9
w: touched you from a- bove,|Tell it wher- ev- er you|go. *|
w: thing He did for you,|Tell it wher- ev- er you|go. *|
w: will the vic- t’ry win,|Tell it wher- ev- er you|go. *|
w: place in Heav’n se- cure,|Tell it wher- ev- er you|go. *|
"^Refrain" [Ac] [Ae]3 [EA] [Ec]2 E | [=DF] [DB]2 [DB] [DB]4 | [DG][DG][DG][DA] [DB][DB][Ec][DB] | %12
w: |||
w: |||
w: |||
w: |||
 [CA] [Ae]2 [Ge] e4 | [Ec][Ec][Ec][Ec] [Ee][Ee][EA][EG] | %14
w: ||
w: ||
w: ||
w: ||
"^riten." [DF][EG][FA][FB] !fermata![=Ec]4 |"^a tempo" [FB] [Fc]2 [Fd] [Ae] [Gc]2 [GB] | [EA]6 |] %17
w: |||
w: |||
w: |||
w: |||
V:2
 x2 | x8 | x8 | x8 | (C4 D2) x2 | x8 | x8 | x8 | G8 || x7 E | x8 | x8 | x4 (A2 E2) | x8 | x8 | x8 | %16
 x6 |] %17
V:3
 [A,,E,][A,,E,] | [A,,A,][A,,A,][A,,A,][A,,A,] [A,,A,][A,,A,][A,,A,][A,,A,] | %2
w: ~ ~|~ ~ ~ ~ ~ ~ ~ ~|
 [B,,A,][B,,A,][B,,A,][B,,A,] [B,,A,]4 | [E,G,] [E,G,]2 [E,B,] [E,G,] [E,B,]2 [E,G,] | %4
w: ~ ~ ~ ~ ~|~ ~ ~ ~ ~ ~|
 ([A,,A,]2 [=A,,^F,]2 [B,,G,]2) E,E, | [A,,A,][A,,A,][A,,A,][A,,A,] [A,,A,][A,,A,][A,,A,][A,,A,] | %6
w: ~ * * ~ ~|~ ~ ~ ~ ~ ~ ~ ~|
 [B,,A,][B,,A,][B,,A,][B,,A,] [B,,A,]4 | B, B,2 B, [B,F] [B,F]2 [B,=D] | [E,E]8 || %9
w: ~ ~ ~ ~ ~|~ ~ ~ ~ ~ ~|~|
 [A,E] [A,C]3 [A,C] A,2 [C,A,] | [B,,A,] [B,,A,]2 [B,,A,] [B,,A,]4 | %11
w: Tell it, tell it wher-|ev- er you go,|
 [E,B,][E,B,][E,B,][E,F,] [E,G,][E,G,][E,F,][E,G,] | [A,,A,] [A,C]2 [B,D] ([CE]2 [B,D]2) | %13
w: Ma- ny souls are long- ing For the|good things you know; *|
 [A,C]A,A,A, [A,C][A,C][C,A,][C,A,] | [D,A,][D,A,][D,D][D,F,] !fermata![C,G,]4 | %15
w: Some- one’s hope of Hea- ven Rests on|words you may be- stow;|
 [D,B,] [=A,,E]2 [B,,D] [E,C] [E,E]2 [E,D] | [A,,A,C]6 |] %17
w: Tell it wher- ev- er you|go.|
V:4
 x2 | x8 | x8 | x8 | x6 E,E, | x8 | x8 | B, B,2 B, x4 | x8 || x5 A,2 x | x8 | x8 | x8 | %13
 x A,A,A, x4 | x8 | x8 | x6 |] %17

